X: 1
T: Dodi Li [Dm]
O: Israel
Z: 1997 by John Chambers <jc:trillian.mit.edu>
M: C
L: 1/8
P: Play: RARBRCR
K: Dm
"Refrain"\
|: "Dm"D-E F-D "Gm"G4 | "Dm"zF2E  F-E D-C | "Dm"D-E F-D "Gm"G4 | "C"zFEC "Dm"D4 :|
"A"|: "Dm"zA2-G A-B c-B | zA2-G AG F2 | zA-G A2 B-A | "Gm"G4 z4 :|
"B"|: "Dm"zA2G A-G F2 |  "C"zE2D EF G-A | "F"zA-=Bc "G"d-c BG | "A"A4 z4 :|
"C"|: "Dm"zA2G A4 | "Gm"zG2-A G4 | "Dm"zA2-G "F"A2 c=B | "A"A4 z4 :|
